!!!OTL: Graf und Nonne (Die Nonne)
!!!OTL-incipit:Die Blaetter von den Baeumen,
!!!ARE: Europa, Mitteleuropa, Deutschland (BRD), Franken, Mittelfranken, Hersbruck,
!!    Altsittenbach
!!!YOR: 8, S. 61
!!    1914 aufgezeichnet
!!!SCT: Q0155O
!!!TXL: @@DE
!!!YEM: Copyright 1995, estate of Helmut Schaffrath.
**kern	**text
*ICvox	*
*M4/4	*
*met(c)	*
*k[]	*
*C:	*
!LO:TX:a:t=Recht langsam und grtragen	!
{4g	Die
=1	=1
4.cc	Blät-
8g	-ter
4e	von
4g	den
=2	=2
(4g	Bäu-
4ee)	.
4ee}	-men,
{4ee	die
=3	=3
4.dd	falln
8cc	he-
4b	-rab
4dd	auf
=4	=4
2.dd}	mich,
{4g	weil
=5	=5
4.ee	mich
8ee	mein
4ee	Schatʒ
4ee	ver-
=6	=6
4ee	-las-
4gg	-sen
4ff}	hat,
{4ee	weil
=7	=7
4.dd	mich
8dd	mein
4dd	Schatʒ
4ee	ver-
=8	=8
4ff	-las-
4aa	-sen
4gg}	hat,
{4ee	das
=9	=9
2gg	krän-
2ff	-ket
=10	=10
2.ee}	mich.
==	==
!!!AGN: Ballade, Standesunterschied, vergebliche Werbung, Liebe, Klage;, bei der Arbeit, Hopfenpfluecken
!! Grundton in der zweigestrichenen Oktave
!!!ONB: ESAC (Essen Associative Code) Database: BALLADE
!!!AMT: simple quadruple
!!!AIN: vox
!!!EED: Helmut Schaffrath
!!!EEV: 1.0
!!@@COMMENT:"Aufʒeichnung in Altsittenbach bei
!!Hersbruck Mittelfranken beim Hopfenpflücken,
!!1914, von Anna Ullherr (DVA - A 145 059)"
!!@@END:
!!!source: Deutsche Volkslieder mit ihren Melodien. Herausgegeben vom Deutschen Volksliedarchiv. Achter Teil. Freiburg/Breisgau 1988.
!!!page: 61
!!!ENC: Anna Maria Matuszewska
!!!EEV: 2025/03/10
*-	*-
